X:534
T:
S:Efter »Florsen» i Burs.
R:vals
O:Gotland, Burs
M:3/4
L:1/8
K:G
Bc|(ed) d2 (Bc)|(ed) d2 (gf)|f2 e2 e2|e3 (dcB)|
B2 A2 A2|a3 (fga)|b2 g2 g2|g4::d2|d2 c2 B2|
d2 e2 B2|d2 c2 c2|c2- c3 c|c2 B2 A2|A2 B2 c2|
c2 B2 B2|B2- B2 d2|g4 =f2|=f2 e2 e2|a4 g2|
g2 ^f2 f2|g2 d2 d2|^d2 e2 (BA)|G2 G2 (BA)|G4:|

